img/svg/binders--hover.svg

<svg width="13" height="24" xmlns="http://www.w3.org/2000/svg"><path d="M5 24c-2.896 0-5-2.313-5-5.5V7c0-3.99 2.795-7 6.5-7C10.206 0 13 3.01 13 7v8.498a1 1 0 1 1-2 0V7c0-2.897-1.893-5-4.5-5S2 4.103 2 7v11.5c0 1.743.928 3.5 3 3.5s3-1.757 3-3.5V9.498c0-.602-.146-2-1.5-2S5 8.896 5 9.498v7.5a1 1 0 1 1-2 0v-7.5c0-2.393 1.407-4 3.5-4 2.094 0 3.5 1.607 3.5 4V18.5c0 3.188-2.103 5.5-5 5.5z" fill="#0067C5" fill-rule="nonzero"/></svg>

<?xml version="1.0" encoding="UTF-8"?>
<svg width="13px" height="24px" viewBox="0 0 13 24" version="1.1" xmlns="http://www.w3.org/2000/svg" xmlns:xlink="http://www.w3.org/1999/xlink">
    <!-- Generator: Sketch 48.1 (47250) - http://www.bohemiancoding.com/sketch -->
    <title>Shape</title>
    <desc>Created with Sketch.</desc>
    <defs></defs>
    <g id="Page-1" stroke="none" stroke-width="1" fill="none" fill-rule="evenodd">
        <g id="paperclip-2" fill="#0067C5" fill-rule="nonzero">
            <path d="M5,24 C2.104,24 0,21.687 0,18.5 L0,7 C0,3.01 2.795,0 6.5,0 C10.206,0 13,3.01 13,7 L13,15.498 C13,16.05 12.553,16.498 12,16.498 C11.448,16.498 11,16.05 11,15.498 L11,7 C11,4.103 9.107,2 6.5,2 C3.893,2 2,4.103 2,7 L2,18.5 C2,20.243 2.928,22 5,22 C7.072,22 8,20.243 8,18.5 L8,9.498 C8,8.896 7.854,7.498 6.5,7.498 C5.146,7.498 5,8.896 5,9.498 L5,16.998 C5,17.55 4.553,17.998 4,17.998 C3.448,17.998 3,17.55 3,16.998 L3,9.498 C3,7.105 4.407,5.498 6.5,5.498 C8.594,5.498 10,7.105 10,9.498 L10,18.5 C10,21.688 7.897,24 5,24 Z" id="Shape"></path>
        </g>
    </g>
</svg>
